X: 27539
T: Monaghan Twig, The
R: reel
M: 4/4
K: Amixolydian
cA ~A2 cded|cA ~A2 deed|cA ~A2 cdec|BG ~G2 d2 ed|
cAAB cAAB|cAAG EDEG|~A3B cdec|BG ~G2 d2 ed||
cdef gefd|cdef ~e3d|cdef ~g3 e|dBGB d2ed|
cded cded|cA~A2 cdef|~g3 e deed|BG ~G2 dfed||

